X: 67
T:Inauguration Reel or The Clinton Canter
% Nottingham Music Database
S:Dennis Salter Jan 1993, via PR
M:4/4
L:1/4
K:D
F/2G/2|"D"BA/2A/2 AF/2G/2|B/2A/2A/2A/2 Az|AF/2G/2 A/2d/2c/2B/2|"A7"c3E/2F/2|
"Em"GC/2D/2 "A7"EE/2F/2|"Em"G/2F/2E/2F/2 "A7"Gz|"Em"GC/2D/2 "A7"Ec|\
"Em"BA "A7"BA|
"D"BA/2A/2 AF/2G/2|B/2A/2A/2A/2 Az|"D"AF/2G/2 "D7"A/2f/2A/2f/2|"G"ed Bg/2g/2|
"G/dim"g_B/2B/2 Bf/2f/2|"D"fA/2A/2 AA/2^A/2|"Em"B/2d/2-d/2e/2 "A7"cA|\
"D"dd "D7"ef||
K:G
"G"g/2f/2g/2a/2 g/2f/2e/2d/2|e/2B/2B/2B/2 B3/2d/2|"G"e/2B/2^A/2B/2 d/2g/2^c|\
"Am"c2 -c2|"D7"F3/2G/2 "Am"Af|
"D7"ed F2|F/2G/2A/2B/2 cf|"Am"ed "D7"ed|"G"d/2B/2c/2^c/2 d/2g/2f/2e/2|\
e/2d/2d/2d/2 dz|
"G"d/2g/2f/2g/2 "G7"ag|"C"e3e/2e/2|"G/dim"e_B/2_B/2 Be/2f/2|"G"ed BG|\
"D7"F/2d/2E/2c/2 B/2D/2A|"G"G3||


